src/images/badges/19.svg

<?xml version="1.0" encoding="UTF-8" standalone="no"?>
<!-- Created with Inkscape (http://www.inkscape.org/) -->

<svg
   id="svg5"
   width="32"
   height="32"
   version="1.1"
   viewBox="0 0 32 32"
   sodipodi:docname="19.svg"
   inkscape:version="1.2.2 (b0a8486541, 2022-12-01)"
   xmlns:inkscape="http://www.inkscape.org/namespaces/inkscape"
   xmlns:sodipodi="http://sodipodi.sourceforge.net/DTD/sodipodi-0.dtd"
   xmlns="http://www.w3.org/2000/svg"
   xmlns:svg="http://www.w3.org/2000/svg">
  <sodipodi:namedview
     id="namedview1474"
     pagecolor="#ffffff"
     bordercolor="#000000"
     borderopacity="0.25"
     inkscape:showpageshadow="2"
     inkscape:pageopacity="0"
     inkscape:pagecheckerboard="0"
     inkscape:deskcolor="#d1d1d1"
     showgrid="false"
     inkscape:zoom="15.77732"
     inkscape:cx="8.6516594"
     inkscape:cy="11.472164"
     inkscape:window-width="1560"
     inkscape:window-height="874"
     inkscape:window-x="40"
     inkscape:window-y="26"
     inkscape:window-maximized="1"
     inkscape:current-layer="svg5" />
  <defs
     id="defs2">
    <inkscape:path-effect
       effect="powermask"
       id="path-effect1221"
       is_visible="true"
       lpeversion="1"
       uri="#mask-powermask-path-effect1221"
       invert="false"
       hide_mask="false"
       background="true"
       background_color="#ffffffff" />
    <inkscape:path-effect
       effect="powermask"
       id="path-effect1198"
       is_visible="true"
       lpeversion="1"
       uri="#mask-powermask-path-effect1198"
       invert="false"
       hide_mask="false"
       background="true"
       background_color="#ffffffff" />
    <inkscape:path-effect
       effect="powermask"
       id="path-effect1182"
       is_visible="true"
       lpeversion="1"
       uri="#mask-powermask-path-effect1182"
       invert="false"
       hide_mask="false"
       background="true"
       background_color="#ffffffff" />
    <inkscape:path-effect
       effect="powermask"
       id="path-effect2471"
       is_visible="true"
       lpeversion="1"
       uri="#mask-powermask-path-effect1221"
       invert="false"
       hide_mask="false"
       background="true"
       background_color="#ffffffff" />
    <linearGradient
       id="linearGradient927"
       x2="32"
       y1="16"
       y2="16"
       gradientTransform="translate(-10.144 5.8564)"
       gradientUnits="userSpaceOnUse">
      <stop
         id="stop921"
         stop-color="#7a5722"
         offset="0"
         style="stop-color:#22667a;stop-opacity:1;" />
      <stop
         id="stop923"
         stop-color="#f0a538"
         offset="1"
         style="stop-color:#38f06f;stop-opacity:1;" />
    </linearGradient>
    <mask
       maskUnits="userSpaceOnUse"
       id="mask-powermask-path-effect2471" />
    <filter
       id="mask-powermask-path-effect2471_inverse"
       inkscape:label="filtermask-powermask-path-effect2471"
       style="color-interpolation-filters:sRGB"
       height="100"
       width="100"
       x="-50"
       y="-50">
      <feColorMatrix
         id="mask-powermask-path-effect2471_primitive1"
         values="1"
         type="saturate"
         result="fbSourceGraphic" />
      <feColorMatrix
         id="mask-powermask-path-effect2471_primitive2"
         values="-1 0 0 0 1 0 -1 0 0 1 0 0 -1 0 1 0 0 0 1 0 "
         in="fbSourceGraphic" />
    </filter>
    <linearGradient
       id="linearGradient927-5"
       x2="32"
       y1="16"
       y2="16"
       gradientTransform="translate(-10.144,5.8564)"
       gradientUnits="userSpaceOnUse">
      <stop
         id="stop921-3"
         stop-color="#7a5722"
         offset="0" />
      <stop
         id="stop923-5"
         stop-color="#f0a538"
         offset="1" />
    </linearGradient>
    <filter
       id="mask-powermask-path-effect1055_inverse"
       inkscape:label="filtermask-powermask-path-effect1055"
       style="color-interpolation-filters:sRGB"
       height="100"
       width="100"
       x="-50"
       y="-50">
      <feColorMatrix
         id="mask-powermask-path-effect1055_primitive1"
         values="1"
         type="saturate"
         result="fbSourceGraphic" />
      <feColorMatrix
         id="mask-powermask-path-effect1055_primitive2"
         values="-1 0 0 0 1 0 -1 0 0 1 0 0 -1 0 1 0 0 0 1 0 "
         in="fbSourceGraphic" />
    </filter>
    <filter
       id="mask-powermask-path-effect1065_inverse"
       inkscape:label="filtermask-powermask-path-effect1065"
       style="color-interpolation-filters:sRGB"
       height="100"
       width="100"
       x="-50"
       y="-50">
      <feColorMatrix
         id="mask-powermask-path-effect1065_primitive1"
         values="1"
         type="saturate"
         result="fbSourceGraphic" />
      <feColorMatrix
         id="mask-powermask-path-effect1065_primitive2"
         values="-1 0 0 0 1 0 -1 0 0 1 0 0 -1 0 1 0 0 0 1 0 "
         in="fbSourceGraphic" />
    </filter>
    <filter
       id="mask-powermask-path-effect1076_inverse"
       inkscape:label="filtermask-powermask-path-effect1076"
       style="color-interpolation-filters:sRGB"
       height="100"
       width="100"
       x="-50"
       y="-50">
      <feColorMatrix
         id="mask-powermask-path-effect1076_primitive1"
         values="1"
         type="saturate"
         result="fbSourceGraphic" />
      <feColorMatrix
         id="mask-powermask-path-effect1076_primitive2"
         values="-1 0 0 0 1 0 -1 0 0 1 0 0 -1 0 1 0 0 0 1 0 "
         in="fbSourceGraphic" />
    </filter>
    <mask
       maskUnits="userSpaceOnUse"
       id="mask-powermask-path-effect1182">
      <path
         id="mask-powermask-path-effect1182_box"
         style="fill:#ffffff;fill-opacity:1"
         d="M 8.702172,10.766781 H 34.321623 V 35.715917 H 8.702172 Z"
         inkscape:original-d="M 8.702172,10.766781 H 34.321623 V 35.715917 H 8.702172 Z" />
      <path
         id="path1180"
         style="display:inline;fill:#000000"
         d="m -0.95073181,0 4e-8,32 L 32.30417,34.644258 31.049268,-3.9448979e-8 Z M 15.809034,0.01757798 C 21.248204,0.27657503 26.182251,3.2840993 28.904737,8.0000005 33.322206,15.65274 30.699803,25.437565 23.047315,29.855469 15.395088,34.273266 5.6104197,31.65178 1.1918464,24 -3.2272808,16.347337 -0.6056361,6.5612055 7.0473151,2.1425781 9.7038172,0.60903079 12.745147,-0.1285901 15.809034,0.01757798 Z"
         sodipodi:nodetypes="ccccccccccc"
         inkscape:original-d="m -0.95073181,0 4e-8,32 L 32.30417,34.644258 31.049268,-3.9448979e-8 Z M 15.809034,0.01757798 C 21.248204,0.27657503 26.182251,3.2840993 28.904737,8.0000005 33.322206,15.65274 30.699803,25.437565 23.047315,29.855469 15.395088,34.273266 5.6104197,31.65178 1.1918464,24 -3.2272808,16.347337 -0.6056361,6.5612055 7.0473151,2.1425781 9.7038172,0.60903079 12.745147,-0.1285901 15.809034,0.01757798 Z" />
    </mask>
    <filter
       id="mask-powermask-path-effect1182_inverse"
       inkscape:label="filtermask-powermask-path-effect1182"
       style="color-interpolation-filters:sRGB"
       height="100"
       width="100"
       x="-50"
       y="-50">
      <feColorMatrix
         id="mask-powermask-path-effect1182_primitive1"
         values="1"
         type="saturate"
         result="fbSourceGraphic" />
      <feColorMatrix
         id="mask-powermask-path-effect1182_primitive2"
         values="-1 0 0 0 1 0 -1 0 0 1 0 0 -1 0 1 0 0 0 1 0 "
         in="fbSourceGraphic" />
    </filter>
    <mask
       maskUnits="userSpaceOnUse"
       id="mask-powermask-path-effect1198">
      <path
         id="mask-powermask-path-effect1198_box"
         style="fill:#ffffff;fill-opacity:1"
         d="M 10.752342,12.816951 H 32.271474 V 33.665769 H 10.752342 Z" />
      <path
         id="path1200"
         style="fill:#ffffff;fill-opacity:1"
         d="M 10.752342,12.816951 H 32.271474 V 33.665769 H 10.752342 Z" />
      <path
         id="path1202"
         style="display:inline;fill:#000000"
         d="m -0.95073181,0 4e-8,32 L 32.30417,34.644258 31.049268,-3.9448979e-8 Z M 15.809034,0.01757798 C 21.248204,0.27657503 26.182251,3.2840993 28.904737,8.0000005 33.322206,15.65274 30.699803,25.437565 23.047315,29.855469 15.395088,34.273266 5.6104197,31.65178 1.1918464,24 -3.2272808,16.347337 -0.6056361,6.5612055 7.0473151,2.1425781 9.7038172,0.60903079 12.745147,-0.1285901 15.809034,0.01757798 Z"
         sodipodi:nodetypes="ccccccccccc" />
    </mask>
    <filter
       id="mask-powermask-path-effect1198_inverse"
       inkscape:label="filtermask-powermask-path-effect1198"
       style="color-interpolation-filters:sRGB"
       height="100"
       width="100"
       x="-50"
       y="-50">
      <feColorMatrix
         id="mask-powermask-path-effect1198_primitive1"
         values="1"
         type="saturate"
         result="fbSourceGraphic" />
      <feColorMatrix
         id="mask-powermask-path-effect1198_primitive2"
         values="-1 0 0 0 1 0 -1 0 0 1 0 0 -1 0 1 0 0 0 1 0 "
         in="fbSourceGraphic" />
    </filter>
    <mask
       maskUnits="userSpaceOnUse"
       id="mask-powermask-path-effect1221">
      <path
         id="mask-powermask-path-effect1221_box"
         style="fill:#ffffff;fill-opacity:1"
         d="M 5.1196365,5.1198449 H 26.879947 V 26.880155 H 5.1196365 Z" />
      <path
         id="mask-powermask-path-effect2471_box"
         style="fill:#ffffff;fill-opacity:1"
         d="M 5.1196365,5.1198449 H 26.879947 V 26.880155 H 5.1196365 Z" />
      <g
         id="g1217"
         style="">
        <path
           id="path1215"
           style="display:inline;fill:#000000;stroke:#000000;stroke-width:8.349;stroke-linecap:round;stroke-linejoin:round;stroke-miterlimit:2;stroke-dasharray:none;stroke-dashoffset:25.6184;paint-order:stroke markers fill"
           d="m 28.186873,22.294139 c 0.320097,1.941217 0.640196,3.882434 0.960293,5.82365 -1.534919,0.807892 -3.069837,1.615783 -4.604756,2.423674 -2.011178,-0.898669 -4.022355,-1.79734 -6.033533,-2.69601 m 0.736468,-0.387633 c -1.215144,0.63958 -2.430288,1.279161 -3.645432,1.918742 m 5.297584,-7.901713 c 0.639669,1.215312 1.279339,2.430625 1.919008,3.645938 -0.639669,-1.215313 -1.279339,-2.430626 -1.919008,-3.645938 z m 2.552156,-1.343306 c 0.639669,1.215312 1.279339,2.430626 1.919008,3.645938 -0.639669,-1.215312 -1.279339,-2.430626 -1.919008,-3.645938 z m 2.818211,-1.483342 c 0.639669,1.215313 1.279339,2.430626 1.919009,3.645938 -0.63967,-1.215312 -1.27934,-2.430625 -1.919009,-3.645938 z m -6.668627,8.165423 C 17.691715,23.18951 15.784193,19.565395 13.876672,15.941281"
           class="UnoptimicedTransforms"
           transform="translate(0.95073181)"
           mask="url(#mask-powermask-path-effect1182)"
           inkscape:path-effect="#path-effect1182"
           inkscape:original-d="m 28.186873,22.294139 c 0.320097,1.941217 0.640196,3.882434 0.960293,5.82365 -1.534919,0.807892 -3.069837,1.615783 -4.604756,2.423674 -2.011178,-0.898669 -4.022355,-1.79734 -6.033533,-2.69601 m 0.736468,-0.387633 c -1.215144,0.63958 -2.430288,1.279161 -3.645432,1.918742 m 5.297584,-7.901713 c 0.639669,1.215312 1.279339,2.430625 1.919008,3.645938 -0.639669,-1.215313 -1.279339,-2.430626 -1.919008,-3.645938 z m 2.552156,-1.343306 c 0.639669,1.215312 1.279339,2.430626 1.919008,3.645938 -0.639669,-1.215312 -1.279339,-2.430626 -1.919008,-3.645938 z m 2.818211,-1.483342 c 0.639669,1.215313 1.279339,2.430626 1.919009,3.645938 -0.63967,-1.215312 -1.27934,-2.430625 -1.919009,-3.645938 z m -6.668627,8.165423 C 17.691715,23.18951 15.784193,19.565395 13.876672,15.941281" />
      </g>
    </mask>
    <filter
       id="mask-powermask-path-effect1221_inverse"
       inkscape:label="filtermask-powermask-path-effect1221"
       style="color-interpolation-filters:sRGB"
       height="100"
       width="100"
       x="-50"
       y="-50">
      <feColorMatrix
         id="mask-powermask-path-effect1221_primitive1"
         values="1"
         type="saturate"
         result="fbSourceGraphic" />
      <feColorMatrix
         id="mask-powermask-path-effect1221_primitive2"
         values="-1 0 0 0 1 0 -1 0 0 1 0 0 -1 0 1 0 0 0 1 0 "
         in="fbSourceGraphic" />
    </filter>
  </defs>
  <g
     id="layer1">
    <circle
       id="path234"
       transform="rotate(-30)"
       cx="5.8564"
       cy="21.856001"
       r="16"
       fill="url(#linearGradient927)"
       stroke-linecap="round"
       stroke-width="10.519"
       style="display:inline" />
  </g>
  <g
     id="g2182"
     style="display:inline"
     inkscape:label="g2182"
     mask="url(#mask-powermask-path-effect1221)"
     inkscape:path-effect="#path-effect2471;#path-effect1221">
    <rect
       style="fill:#ffffff;stroke:#ffffff;stroke-width:3.4684;stroke-linecap:round;stroke-linejoin:round;stroke-miterlimit:2;stroke-dasharray:none;stroke-dashoffset:25.6184;paint-order:stroke markers fill"
       id="rect1593"
       width="11.014318"
       height="11.014318"
       x="10.492634"
       y="10.492842"
       rx="0"
       ry="0"
       d="M 10.492634,10.492842 H 21.506952 V 21.50716 H 10.492634 Z" />
    <rect
       style="fill:none;stroke:#ffffff;stroke-width:1.026;stroke-linecap:round;stroke-linejoin:round;stroke-miterlimit:2;stroke-dasharray:none;stroke-dashoffset:25.6184;paint-order:stroke markers fill"
       id="rect1647"
       width="18.73431"
       height="18.73431"
       x="6.6326365"
       y="6.6328449"
       rx="2.1257968"
       ry="2.1257968"
       d="M 8.7584333,6.6328449 H 23.24115 c 1.177691,0 2.125797,0.9481054 2.125797,2.1257968 V 23.241358 c 0,1.177692 -0.948106,2.125797 -2.125797,2.125797 H 8.7584333 c -1.1776914,0 -2.1257968,-0.948105 -2.1257968,-2.125797 V 8.7586417 c 0,-1.1776914 0.9481054,-2.1257968 2.1257968,-2.1257968 z" />
  </g>
  <g
     inkscape:groupmode="layer"
     id="layer2"
     inkscape:label="Layer 1">
    <g
       id="g1194">
      <path
         id="path1192"
         style="display:inline;fill:#ffffff;stroke:#ffffff;stroke-width:4.24866;stroke-linecap:round;stroke-linejoin:round;stroke-miterlimit:2;stroke-dasharray:none;stroke-dashoffset:25.6184;paint-order:stroke markers fill"
         d="m 28.186873,22.294139 c 0.320097,1.941217 0.640196,3.882434 0.960293,5.82365 -1.534919,0.807892 -3.069837,1.615783 -4.604756,2.423674 -2.011178,-0.898669 -4.022355,-1.79734 -6.033533,-2.69601 m 0.736468,-0.387633 c -1.215144,0.63958 -2.430288,1.279161 -3.645432,1.918742 m 5.297584,-7.901713 c 0.639669,1.215312 1.279339,2.430625 1.919008,3.645938 -0.639669,-1.215313 -1.279339,-2.430626 -1.919008,-3.645938 z m 2.552156,-1.343306 c 0.639669,1.215312 1.279339,2.430626 1.919008,3.645938 -0.639669,-1.215312 -1.279339,-2.430626 -1.919008,-3.645938 z m 2.818211,-1.483342 c 0.639669,1.215313 1.279339,2.430626 1.919009,3.645938 -0.63967,-1.215312 -1.27934,-2.430625 -1.919009,-3.645938 z m -6.668627,8.165423 C 17.691715,23.18951 15.784193,19.565395 13.876672,15.941281"
         class="UnoptimicedTransforms"
         transform="translate(0.95073181)"
         mask="url(#mask-powermask-path-effect1198)"
         inkscape:path-effect="#path-effect1198"
         inkscape:original-d="m 28.186873,22.294139 c 0.320097,1.941217 0.640196,3.882434 0.960293,5.82365 -1.534919,0.807892 -3.069837,1.615783 -4.604756,2.423674 -2.011178,-0.898669 -4.022355,-1.79734 -6.033533,-2.69601 m 0.736468,-0.387633 c -1.215144,0.63958 -2.430288,1.279161 -3.645432,1.918742 m 5.297584,-7.901713 c 0.639669,1.215312 1.279339,2.430625 1.919008,3.645938 -0.639669,-1.215313 -1.279339,-2.430626 -1.919008,-3.645938 z m 2.552156,-1.343306 c 0.639669,1.215312 1.279339,2.430626 1.919008,3.645938 -0.639669,-1.215312 -1.279339,-2.430626 -1.919008,-3.645938 z m 2.818211,-1.483342 c 0.639669,1.215313 1.279339,2.430626 1.919009,3.645938 -0.63967,-1.215312 -1.27934,-2.430625 -1.919009,-3.645938 z m -6.668627,8.165423 C 17.691715,23.18951 15.784193,19.565395 13.876672,15.941281" />
    </g>
  </g>
</svg>

<svg width="32" height="32" version="1.1" viewBox="0 0 32 32" xmlns="http://www.w3.org/2000/svg">
 <defs>
  <linearGradient id="d" x2="32" y1="16" y2="16" gradientTransform="translate(-10.144 5.8564)" gradientUnits="userSpaceOnUse">
   <stop stop-color="#22667a" offset="0"/>
   <stop stop-color="#38f06f" offset="1"/>
  </linearGradient>
  <mask id="c" maskUnits="userSpaceOnUse">
   <path id="e" d="m8.7022 10.767h25.619v24.949h-25.619z" fill="#fff"/>
   <path d="m-0.95073 0 4e-8 32 33.255 2.6443-1.2549-34.644zm16.76 0.017578c5.4392 0.259 10.373 3.2665 13.096 7.9824 4.4175 7.6527 1.7951 17.438-5.8574 21.855-7.6522 4.4178-17.437 1.7963-21.855-5.8555-4.4191-7.6527-1.7975-17.439 5.8555-21.857 2.6565-1.5335 5.6978-2.2712 8.7617-2.125z"/>
  </mask>
  <mask id="b" maskUnits="userSpaceOnUse">
   <path id="f" d="m10.752 12.817h21.519v20.849h-21.519z" fill="#fff"/>
   <path d="m10.752 12.817h21.519v20.849h-21.519z" fill="#fff"/>
   <path d="m-0.95073 0 4e-8 32 33.255 2.6443-1.2549-34.644zm16.76 0.017578c5.4392 0.259 10.373 3.2665 13.096 7.9824 4.4175 7.6527 1.7951 17.438-5.8574 21.855-7.6522 4.4178-17.437 1.7963-21.855-5.8555-4.4191-7.6527-1.7975-17.439 5.8555-21.857 2.6565-1.5335 5.6978-2.2712 8.7617-2.125z"/>
  </mask>
  <mask id="a" maskUnits="userSpaceOnUse">
   <path id="g" d="m5.1196 5.1198h21.76v21.76h-21.76z" fill="#fff"/>
   <path id="h" d="m5.1196 5.1198h21.76v21.76h-21.76z" fill="#fff"/>
   <g style="">
    <path class="UnoptimicedTransforms" transform="translate(.95073)" d="m28.187 22.294c0.3201 1.9412 0.6402 3.8824 0.96029 5.8236-1.5349 0.80789-3.0698 1.6158-4.6048 2.4237-2.0112-0.89867-4.0224-1.7973-6.0335-2.696m0.73647-0.38763c-1.2151 0.63958-2.4303 1.2792-3.6454 1.9187m5.2976-7.9017c0.63967 1.2153 1.2793 2.4306 1.919 3.6459-0.63967-1.2153-1.2793-2.4306-1.919-3.6459zm2.5522-1.3433c0.63967 1.2153 1.2793 2.4306 1.919 3.6459-0.63967-1.2153-1.2793-2.4306-1.919-3.6459zm2.8182-1.4833c0.63967 1.2153 1.2793 2.4306 1.919 3.6459-0.63967-1.2153-1.2793-2.4306-1.919-3.6459zm-6.6686 8.1654c-1.9075-3.6241-3.815-7.2482-5.7226-10.872" mask="url(#c)" stroke="#000" stroke-dashoffset="25.618" stroke-linecap="round" stroke-linejoin="round" stroke-miterlimit="2" stroke-width="8.349" style="paint-order:stroke markers fill"/>
   </g>
  </mask>
 </defs>
 <circle transform="rotate(-30)" cx="5.8564" cy="21.856" r="16" fill="url(#d)" stroke-linecap="round" stroke-width="10.519"/>
 <g mask="url(#a)" stroke="#fff" stroke-dashoffset="25.618" stroke-linecap="round" stroke-linejoin="round" stroke-miterlimit="2">
  <rect x="10.493" y="10.493" width="11.014" height="11.014" rx="0" ry="0" d="M 10.492634,10.492842 H 21.506952 V 21.50716 H 10.492634 Z" fill="#fff" stroke-width="3.4684" style="paint-order:stroke markers fill"/>
  <rect x="6.6326" y="6.6328" width="18.734" height="18.734" rx="2.1258" ry="2.1258" d="M 8.7584333,6.6328449 H 23.24115 c 1.177691,0 2.125797,0.9481054 2.125797,2.1257968 V 23.241358 c 0,1.177692 -0.948106,2.125797 -2.125797,2.125797 H 8.7584333 c -1.1776914,0 -2.1257968,-0.948105 -2.1257968,-2.125797 V 8.7586417 c 0,-1.1776914 0.9481054,-2.1257968 2.1257968,-2.1257968 z" fill="none" stroke-width="1.026" style="paint-order:stroke markers fill"/>
 </g>
 <path class="UnoptimicedTransforms" transform="translate(.95073)" d="m28.187 22.294c0.3201 1.9412 0.6402 3.8824 0.96029 5.8236-1.5349 0.80789-3.0698 1.6158-4.6048 2.4237-2.0112-0.89867-4.0224-1.7973-6.0335-2.696m0.73647-0.38763c-1.2151 0.63958-2.4303 1.2792-3.6454 1.9187m5.2976-7.9017c0.63967 1.2153 1.2793 2.4306 1.919 3.6459-0.63967-1.2153-1.2793-2.4306-1.919-3.6459zm2.5522-1.3433c0.63967 1.2153 1.2793 2.4306 1.919 3.6459-0.63967-1.2153-1.2793-2.4306-1.919-3.6459zm2.8182-1.4833c0.63967 1.2153 1.2793 2.4306 1.919 3.6459-0.63967-1.2153-1.2793-2.4306-1.919-3.6459zm-6.6686 8.1654c-1.9075-3.6241-3.815-7.2482-5.7226-10.872" fill="#fff" mask="url(#b)" stroke="#fff" stroke-dashoffset="25.618" stroke-linecap="round" stroke-linejoin="round" stroke-miterlimit="2" stroke-width="4.2487" style="paint-order:stroke markers fill"/>
</svg>
